wilib/img/svg/clipe-front.svg

<svg xmlns="http://www.w3.org/2000/svg" xmlns:xlink="http://www.w3.org/1999/xlink" preserveAspectRatio="none" width="51" height="61" viewBox="0 0 51 61"><defs><filter id="e" x="-20%" y="-20%" width="140%" height="140%" color-interpolation-filters="sRGB"><feColorMatrix in="SourceGraphic" values="1 0 0 0 0 0 1 0 0 0 0 0 1 0 0 0 0 0 0 0" result="result1"/></filter><path fill="#98ADAF" d="M-9.5-25.7l-3.7-1-3.2.7-4.3 2.9-.95 1.35-.7 1.65-.3 1.6v1.65l.3 1.65.7 1.95 33.8 38.3 1.3 1 2.6.65h1.35l2.25-.65 1-.6 2-3v-3.9L22 17.2 0-9.3l-.65-.35h-.7L-2-9.3l-.3.3v1l21.95 26.25.4.95.3 1.65-1.3 2.55-1.35.7h-1.65l-1.65-.3-1.65-1.35-32.15-37-1-2.6.4-1 .6-2.3.65-1 1-.95.95-.7 3.6-.95 2.35.65 1.35.7.95 1.25 1.65 1.65 1.95-1.65-2.9-2.9-1.65-1.35z" id="a"/><path fill="#B0C3C4" d="M-20.4-13.25l.7.95 32.15 36.1v.3l1.35.95 1.6.7h1.65l1.35-.7.65-.95.6-1.3-.6 1-1.35.65-1.65.3-1.65-.65-1.65-1.3-32.15-36.05-1-1.6-.3-1.65v-1.65l.3-1.65-.65 1.65-.3 1.95.95 2.95z" id="b"/><path fill="#B0C3C4" d="M-1.35-8.3l.7.3 21 24.9L22 19.8v1.65l-.3 1.35.6-1.35V19.5l-.6-1.65-1.05-1.95L0-8.7-.65-9h-1l-.35.7v.3l.65-.3z" id="c"/><path fill="#B0C3C4" d="M-14.75-25.05h1.55l1.35.3 3.3 1.65 1.65 1.65.6 1.35 1.05-.95-1.35-1.65-2.6-2.05-1.3-.6-2-.65h-1.95l-2.35.65-.95.6L-20-22.7l-.7.95-.35 1 2-2.35 1.3-.95 1.35-.7 1.65-.3z" id="d"/><path fill="#98ADAF" d="M-10.65-27.5l-2 1.65 30.9 37.65 1.65 3.3.3 1.6v3l-1.65 2.6-1 1-1.95 1.25-1.35.4H12.6L9.7 23.9l-1.65-1-1.65-1.55L-20.85-9.5l-.35-.3h-1.3l-.3.6v1.35l29.2 32.8 4.25 2.25 1.95.35h2.05l3.3-1.35 1.25-.95 2.65-2.95.65-2 .3-1.95V16.4l-.3-2.35-.95-1.95-1.35-1.95-30.85-37.65z" id="f"/><path fill="#B0C3C4" d="M-21.2-9.2l-.6-.3h-.4l-.3.7.3.3h.4l.6.3L7.75 24.25l1.65 1 1.65.65 1.55.3h1.35l1.65-.3 1.95-1.35 1.35-1.25 1-1.95-.7 1.25-.95 1-2.35 1.35-2.6.6-1.65-.3-1.65-.7-1.6-.95-29.6-32.8z" id="g"/><path fill="#B0C3C4" d="M-11-27.2l-1 .7 32.85 40.25.7 2.95v2.6l-.7 2.65.7-1.3.6-3V16.1l-.6-3-1-1.65L-11-27.2z" id="h"/></defs><use xlink:href="#a" transform="translate(22.65 26.7)"/><use xlink:href="#b" transform="translate(22.65 26.7)"/><use xlink:href="#c" transform="translate(22.65 26.7)"/><use xlink:href="#d" transform="translate(22.65 26.7)"/><g><use filter="url(#e)" xlink:href="#f" transform="translate(28.4 32.85)"/><use filter="url(#e)" xlink:href="#g" transform="translate(28.4 32.85)"/><use filter="url(#e)" xlink:href="#h" transform="translate(28.4 32.85)"/></g></svg>

<svg xmlns="http://www.w3.org/2000/svg" version="1.1" xmlns:xlink="http://www.w3.org/1999/xlink" preserveAspectRatio="none" x="0px" y="0px" width="51px" height="61px" viewBox="0 0 51 61">
<defs>
<filter id="Filter_1" x="-20%" y="-20%" width="140%" height="140%" color-interpolation-filters="sRGB">
<feColorMatrix in="SourceGraphic" type="matrix" values="1 0 0 0 0 0 1 0 0 0 0 0 1 0 0 0 0 0 0 0" result="result1"/>
</filter>

<g id="Gr_ficos_Tween_2_0_Layer0_0_MEMBER_0_FILL">
<path fill="#98ADAF" stroke="none" d="
M -9.5 -25.7
L -13.2 -26.7 -16.4 -26 -20.7 -23.1 -21.65 -21.75 -22.35 -20.1 -22.65 -18.5 -22.65 -16.85 -22.35 -15.2 -21.65 -13.25 12.15 25.05 13.45 26.05 16.05 26.7 17.4 26.7 19.65 26.05 20.65 25.45 22.65 22.45 22.65 18.55 22 17.2 0 -9.3 -0.65 -9.65 -1.35 -9.65 -2 -9.3 -2.3 -9 -2.3 -8 19.65 18.25 20.05 19.2 20.35 20.85 19.05 23.4 17.7 24.1 16.05 24.1 14.4 23.8 12.75 22.45 -19.4 -14.55 -20.4 -17.15 -20 -18.15 -19.4 -20.45 -18.75 -21.45 -17.75 -22.4 -16.8 -23.1 -13.2 -24.05 -10.85 -23.4 -9.5 -22.7 -8.55 -21.45 -6.9 -19.8 -4.95 -21.45 -7.85 -24.35 -9.5 -25.7 Z"/>
</g>

<g id="Gr_ficos_Tween_2_0_Layer0_0_MEMBER_1_FILL">
<path fill="#B0C3C4" stroke="none" d="
M -20.4 -13.25
L -19.7 -12.3 12.45 23.8 12.45 24.1 13.8 25.05 15.4 25.75 17.05 25.75 18.4 25.05 19.05 24.1 19.65 22.8 19.05 23.8 17.7 24.45 16.05 24.75 14.4 24.1 12.75 22.8 -19.4 -13.25 -20.4 -14.85 -20.7 -16.5 -20.7 -18.15 -20.4 -19.8 -21.05 -18.15 -21.35 -16.2 -20.4 -13.25 Z"/>
</g>

<g id="Gr_ficos_Tween_2_0_Layer0_0_MEMBER_2_FILL">
<path fill="#B0C3C4" stroke="none" d="
M -1.35 -8.3
L -0.65 -8 20.35 16.9 22 19.8 22 21.45 21.7 22.8 22.3 21.45 22.3 19.5 21.7 17.85 20.65 15.9 0 -8.7 -0.65 -9 -1.65 -9 -2 -8.3 -2 -8 -1.35 -8.3 Z"/>
</g>

<g id="Gr_ficos_Tween_2_0_Layer0_0_MEMBER_3_FILL">
<path fill="#B0C3C4" stroke="none" d="
M -14.75 -25.05
L -13.2 -25.05 -11.85 -24.75 -8.55 -23.1 -6.9 -21.45 -6.3 -20.1 -5.25 -21.05 -6.6 -22.7 -9.2 -24.75 -10.5 -25.35 -12.5 -26 -14.45 -26 -16.8 -25.35 -17.75 -24.75 -20 -22.7 -20.7 -21.75 -21.05 -20.75 -19.05 -23.1 -17.75 -24.05 -16.4 -24.75 -14.75 -25.05 Z"/>
</g>

<g id="Gr_ficos_Tween_4_0_Layer0_0_MEMBER_0_FILL">
<path fill="#98ADAF" stroke="none" d="
M -10.65 -27.5
L -12.65 -25.85 18.25 11.8 19.9 15.1 20.2 16.7 20.2 19.7 18.55 22.3 17.55 23.3 15.6 24.55 14.25 24.95 12.6 24.95 9.7 23.9 8.05 22.9 6.4 21.35 -20.85 -9.5 -21.2 -9.8 -22.5 -9.8 -22.8 -9.2 -22.8 -7.85 6.4 24.95 10.65 27.2 12.6 27.55 14.65 27.55 17.95 26.2 19.2 25.25 21.85 22.3 22.5 20.3 22.8 18.35 22.8 16.4 22.5 14.05 21.55 12.1 20.2 10.15 -10.65 -27.5 Z"/>
</g>

<g id="Gr_ficos_Tween_4_0_Layer0_0_MEMBER_1_FILL">
<path fill="#B0C3C4" stroke="none" d="
M -21.2 -9.2
L -21.8 -9.5 -22.2 -9.5 -22.5 -8.8 -22.2 -8.5 -21.8 -8.5 -21.2 -8.2 7.75 24.25 9.4 25.25 11.05 25.9 12.6 26.2 13.95 26.2 15.6 25.9 17.55 24.55 18.9 23.3 19.9 21.35 19.2 22.6 18.25 23.6 15.9 24.95 13.3 25.55 11.65 25.25 10 24.55 8.4 23.6 -21.2 -9.2 Z"/>
</g>

<g id="Gr_ficos_Tween_4_0_Layer0_0_MEMBER_2_FILL">
<path fill="#B0C3C4" stroke="none" d="
M -11 -27.2
L -12 -26.5 20.85 13.75 21.55 16.7 21.55 19.3 20.85 21.95 21.55 20.65 22.15 17.65 22.15 16.1 21.55 13.1 20.55 11.45 -11 -27.2 Z"/>
</g>
</defs>

<g transform="matrix( 1, 0, 0, 1, 22.65,26.7) ">
<g transform="matrix( 1, 0, 0, 1, 0,0) ">
<use xlink:href="#Gr_ficos_Tween_2_0_Layer0_0_MEMBER_0_FILL"/>
</g>

<g transform="matrix( 1, 0, 0, 1, 0,0) ">
<use xlink:href="#Gr_ficos_Tween_2_0_Layer0_0_MEMBER_1_FILL"/>
</g>

<g transform="matrix( 1, 0, 0, 1, 0,0) ">
<use xlink:href="#Gr_ficos_Tween_2_0_Layer0_0_MEMBER_2_FILL"/>
</g>

<g transform="matrix( 1, 0, 0, 1, 0,0) ">
<use xlink:href="#Gr_ficos_Tween_2_0_Layer0_0_MEMBER_3_FILL"/>
</g>
</g>

<g transform="matrix( 1, 0, 0, 1, 28.4,32.85) ">
<g transform="matrix( 1, 0, 0, 1, 0,0) ">
<use filter="url(#Filter_1)" xlink:href="#Gr_ficos_Tween_4_0_Layer0_0_MEMBER_0_FILL"/>
</g>

<g transform="matrix( 1, 0, 0, 1, 0,0) ">
<use filter="url(#Filter_1)" xlink:href="#Gr_ficos_Tween_4_0_Layer0_0_MEMBER_1_FILL"/>
</g>

<g transform="matrix( 1, 0, 0, 1, 0,0) ">
<use filter="url(#Filter_1)" xlink:href="#Gr_ficos_Tween_4_0_Layer0_0_MEMBER_2_FILL"/>
</g>
</g>
</svg>
